!!!!SEGMENT: pl-kk--kk-i-636--001-002_anonim--in-corona-domini-responsorium-1mum.krn
!!!cenid: 18xx:4524
!!!COM: Anonim
!!!COM-rismID: pe30004985
!!!CDT:
!!!CNT:
!!!OPR: In Corona Domini
!!!OTL: Responsorium 1mum
!!!OMV: 002
!!!PDT:
!!!AGN: Sacred
!!!YEC: Copyright 2022 Narodowy Instytut Fryderyka Chopina (https://polishscores.org)
!!!YEM: License CC-BY-4.0 (https://creativecommons.org/licenses/by/4.0)
!!!SMS-siglum: PL-Kk
!!!SMS-shelfmark: Kk.I.636
!!!SMS-variant:
!!!SMS-altvar:
!!!SMS-shelfwork: 001-002 M
!!!NIFC-rismSourceID: 1001216440
!!!NIFC-rismChildID: 1001216902
!!!NIFC-islandoraID: pl-kk:40786
!!!URL-pdf-islandora: https://repozytorium.nifc.pl/islandora/object/pl-kk%3A40786/datastream/PDF/view
!!!URL-scan: https://polish.musicsources.pl/pl/lokalizacje/galeria/rekopisy/7271/1 @EN{Scan on Polish Music Sources Website} @PL{Skany w portalu Dziedzictwo Muzyki Polskiej w otwartym dostępie}
!!!IIIF:
!!!ONB-nifc: UWAGA: Lamentacje i Responsoria In Corona Domini na skanach: S – 1-7, A – 24-30, T – 45-52, B – 70-78. Każda Lamentacja i Responsorium to oddzielne pliki.
!!!OMD: Vivace.
!!!AIN: 1 alto 1 bass 1 soprn 1 tenor
!!!key: d
**kern	**text	**kern	**text	**kern	**text	**kern	**text
*part4	*part4	*part3	*part3	*part2	*part2	*part1	*part1
*staff4	*staff4	*staff3	*staff3	*staff2	*staff2	*staff1	*staff1
*I"Basso.	*	*I"Tenore.	*	*I"Alto.	*	*I"Soprano.	*
*I'B	*	*I'T	*	*I'A	*	*I'S	*
*Ibass	*	*Itenor	*	*Ialto	*	*Isoprn	*
*ICvox	*	*ICvox	*	*ICvox	*	*ICvox	*
*clefF4	*	*clefC4	*	*clefC3	*	*clefC1	*
*k[b-]	*	*k[b-]	*	*k[b-]	*	*k[b-]	*
*d:	*	*d:	*	*d:	*	*d:	*
*M4/4	*	*M4/4	*	*M4/4	*	*M4/4	*
*met(c)	*	*met(c)	*	*met(c)	*	*met(c)	*
=1	=1	=1	=1	=1	=1	=1	=1
*	*	*2\right	*	*	*	*	*
!!LO:TX:t=P:problem=all\right:global
!LO:TX:a:t=Vivace.	!	!	!	!LO:TX:a:t=Vivace.	!	!	!
1D	In	2A\	In	1f	In	2r	.
*	*	*	*	*	*	*2\right	*
.	.	[2d\	mon-	.	.	2a\	In
=2	=2	=2	=2	=2	=2	=2	=2
*2\right	*	*	*	*2\right	*	*	*
2.A\	mon-	4d\]	.	2.e\	mon-	2.a\	mon-
.	.	8c#X\L	.	.	.	.	.
.	.	8Bn\J	.	.	.	.	.
.	.	4c#\	.	.	.	.	.
4A\	-te	4c#\	-te	4e\	-te	4a\	-te
!LO:LB:g=original	!	!LO:LB:g=original	!	!	!	!LO:LB:g=original	!
=3	=3	=3	=3	=3	=3	=3	=3
4G\	O-	8c#X\L	O-	2e\	O-	2b-\	O-
.	.	8B-\J	.	.	.	.	.
4G\	-li-	8c#\L	-li-	.	.	.	.
.	.	8d\J	.	.	.	.	.
[2G\	-ve-	[2e\	-ve-	2c#X\	-li-	2b-\	-li-
!	!	!	!	!LO:LB:g=original	!	!	!
=4	=4	=4	=4	=4	=4	=4	=4
4G\]	.	4e\]	.	4d\	-ve-	[1a	-ve-
8.F\L	.	8.d\L	.	4A/	.	.	.
16E\Jk	.	16c#X\Jk	.	.	.	.	.
4F\	.	4d\	.	[2f\	.	.	.
4D\	.	4A\	.	.	.	.	.
=5	=5	=5	=5	=5	=5	=5	=5
1B-	.	1d	.	4f\]	.	4a\]	.
.	.	.	.	8e\L	.	8.g/L	.
.	.	.	.	8d\J	.	.	.
.	.	.	.	.	.	16f/Jk	.
.	.	.	.	4b-\	.	2g\	.
.	.	.	.	4g\	.	.	.
=6	=6	=6	=6	=6	=6	=6	=6
2A\	-ti	2c#X\	-ti,	2e\	-ti	4a\	-ti,
.	.	.	.	.	.	4a\	o-
2r	.	4r	.	2r	.	[2ee\	-ra-
.	.	4A\	o-	.	.	.	.
=7	=7	=7	=7	=7	=7	=7	=7
2r	.	[1d	-ra-	4r	.	4ee\]	.
.	.	.	.	4d\	o-	8.dd\L	.
.	.	.	.	.	.	16cc#X\Jk	.
4r	.	.	.	[2a\	-ra-	4dd\	.
4D\	o-	.	.	.	.	4ccn\	.
!LO:LB:g=original	!	!	!	!	!	!LO:LB:g=original	!
=8	=8	=8	=8	=8	=8	=8	=8
2G\	-ra-	2d\]	.	4a\]	.	2b-\	.
.	.	.	.	8.g\L	.	.	.
.	.	.	.	16f#X\Jk	.	.	.
4G\	-vit	4d\	-vit	4g\	-vit	4b-\	-vit
4G\	ad	4d\	ad	4g\	ad	4b-\	ad
!	!	!LO:LB:g=original	!	!LO:LB:g=original	!	!	!
=9	=9	=9	=9	=9	=9	=9	=9
2C#X/	Pa-	2e\	Pa-	4g\	Pa-	1a	Pa-
.	.	.	.	8fn\L	.	.	.
.	.	.	.	8e\J	.	.	.
2D/	.	2d\	.	2f\	.	.	.
=10	=10	=10	=10	=10	=10	=10	=10
4AA/	-trem,	2c#X\	-trem,	2e\	-trem,	2a\	-trem,
2A\	Pa-	.	.	.	.	.	.
.	.	2r	.	2e\	Pa-	2r	.
4G\	.	.	.	.	.	.	.
=11	=11	=11	=11	=11	=11	=11	=11
4.F\	.	4r	.	4e\	.	4r	.
.	.	4f\	Pa-	8.d\L	.	2dd\	Pa-
8E\	.	.	.	.	.	.	.
.	.	.	.	16e\Jk	.	.	.
4D\	-trem,	8f\L	.	[2f\	.	.	.
.	.	8e\J	.	.	.	.	.
[4A\	si	8d\L	.	.	.	4cc\	.
.	.	8c\J	.	.	.	.	.
!LO:LB:g=original	!	!	!	!	!	!	!
=12	=12	=12	=12	=12	=12	=12	=12
4A\]	.	4d\	.	4f\]	.	2b-\	.
2G\	fi-	8d\	-ter	8e\L	.	.	.
.	.	8d\	si	8d\J	.	.	.
.	.	8c\L	fi-	4e\	-ter,	4b-\	-ter,
.	.	8B-\J	.	.	.	.	.
8F\	-e-	8A/	-e-	4g\	si	4b-\	si
8E\	-ri	8G/	-ri	.	.	.	.
!	!	!LO:LB:g=original	!	!	!	!	!
=13	=13	=13	=13	=13	=13	=13	=13
2F\	po-	2A\	po-	4g\	fie-	4b-\	fie-
.	.	.	.	8f\	.	8a\	.
.	.	.	.	8e\	-ri	8a\	-ri
8F\L	.	8A\L	.	[2f\	po-	2a\	po-
8G\	.	8B-\J	.	.	.	.	.
8A\	.	8c\L	.	.	.	.	.
8B-\J	.	8d\J	.	.	.	.	.
!	!	!	!	!LO:LB:g=original	!	!LO:LB:g=original	!
=14	=14	=14	=14	=14	=14	=14	=14
2c\	.	2c\	.	4f\]	.	4a\	.
.	.	.	.	8e\L	.	8g/L	.
.	.	.	.	8d\J	.	8f/J	.
2C/	-test	2c\	-test,	2e\	-test,	4g\	-test
.	.	.	.	.	.	[4cc\	tran-
=15	=15	=15	=15	=15	=15	=15	=15
!	!	!	!	!LO:TX:a:t=1.	!	!	!
4.F\	tran-	4.A\	tran-	1r	.	8cc\]	.
.	.	.	.	.	.	8b-\	-se-
.	.	.	.	.	.	8a\	-at,
8G\	-se-	8B-\	-se-	.	.	8g\	a
4A\	-at	4c\	-at	.	.	4f\	me,
4B-\	a	4d\	a	.	.	4r	.
!LO:LB:g=original	!	!	!	!	!	!	!
=16	=16	=16	=16	=16	=16	=16	=16
2F\	me	2c\	me	4.f\	tran-	4.a\	tran-
.	.	.	.	8g\	-se-	8b-\	-se-
2r	.	2r	.	4a\	-at	4cc\	-at,
.	.	.	.	4f\	a	4a\	a
=17	=17	=17	=17	=17	=17	=17	=17
4.C/	tran-	4.c\	tran-	4.e\	me-	2g\	me,
8D/	-se-	8c\	-se-	8f\	.	.	.
4E\	-at	4c\	-at	4g\	.	[2cc\	ca-
4F\	a	4f\	a	4a\	-a	.	.
!	!	!LO:LB:g=original	!	!	!	!LO:LB:g=original	!
=18	=18	=18	=18	=18	=18	=18	=18
2C/	me	2e\	me,	2g\	me	4cc\]	.
.	.	.	.	.	.	8b-\L	.
.	.	.	.	.	.	8a\J	.
2C#X/	ca-	[2e\	ca-	2g\	ca-	2b-\	.
!	!	!	!	!LO:LB:g=original	!	!	!
=19	=19	=19	=19	=19	=19	=19	=19
2D\	-lix	4e\]	.	4f\	-lix	4a\	-lix
.	.	8d\L	-lix	2f\	i-	2a\	i-
.	.	8c#X\J	.	.	.	.	.
2BB-\	i-	2d\	i-	.	.	.	.
.	.	.	.	8e\L	.	4g\	.
.	.	.	.	8d\J	.	.	.
=20	=20	=20	=20	=20	=20	=20	=20
4AA/	-ste,	4c#X\	-ste,	4e\	-ste,	4a\	-ste,
4.A\	Spi-	4.c#\	spi-	4.e\	spi-	4.a\	spi-
8G\	-ri-	8c#\	-ri-	8e\	-ri-	8a\	-ri-
4F\	-tus	4d\	-tus	4f\	-tus	4a\	-tus
!LO:LB:g=original	!	!	!	!	!	!	!
=21	=21	=21	=21	=21	=21	=21	=21
4E\	qui-	4e\	qui-	4g\	qui-	8cc#X\L	qui-
.	.	.	.	.	.	8dd\J	.
4C#X/	-dem	4A\	-dem	4g\	-dem	4ee\	-dem
4.D/	promp-	4.A\	promp-	4.f\	promp-	4.dd\	promp-
8D/	-tus	8A\	-tus	8f\	-tus	8dd\	-tus
!	!	!LO:LB:g=original	!	!	!	!LO:LB:g=original	!
=22	=22	=22	=22	=22	=22	=22	=22
4AA/	est,	2A\	est	2e\	est,	2cc#X\	est
2A\	ca-	.	.	.	.	.	.
.	.	4r	.	2f#X\	ca-	2ccn\	ca-
4F#X\	-ro	[4d\	ca-	.	.	.	.
!	!	!	!	!LO:LB:g=original	!	!	!
=23	=23	=23	=23	=23	=23	=23	=23
2G\	au-	4d\]	.	2fn\	-ro	2bn\	-ro
.	.	4Bn\	-ro	.	.	.	.
4G\	-tem	2c\	au-	4e\	au-	[2b-X\	au-
4E\	in-	.	.	4g\	-tem	.	.
=24	=24	=24	=24	=24	=24	=24	=24
1F	-fir-	4c\	-tem	4g\	au-	4b-\]	.
.	.	4c\	in-	8f\L	-tem	8a\	-tem
.	.	.	.	8e\J	in-	8g\	in-
.	.	2c\	-fir-	2f\	-fir-	2a\	-fir-
!LO:LB:g=original	!	!	!	!	!	!	!
=25	=25	=25	=25	=25	=25	=25	=25
4C/	-ma,	4c\	-ma,	2e\	-ma,	2g\	-ma,
2c\	ca-	2e\	ca-	.	.	.	.
.	.	.	.	4a\	ca-	4cc\	ca-
4A\	-ro	[4f\	-ro	4a\	-ro	4cc\	-ro
!	!	!LO:LB:g=original	!	!	!	!	!
=26	=26	=26	=26	=26	=26	=26	=26
2B-\	au-	4f\]	.	4a\	au-	2dd\	au-
.	.	4d\	au-	4.g\	.	.	.
4A\	-tem	4e-X\	-tem	.	.	[2cc\	-tem
.	.	.	.	8f#X\	.	.	.
4F#X\	in-	4d\	in-	[4a\	-tem	.	.
!	!	!	!	!LO:LB:g=original	!	!LO:LB:g=original	!
=27	=27	=27	=27	=27	=27	=27	=27
1G	-fir-	1d	-fir-	4a\]	.	4cc\]	.
.	.	.	.	8g\L	in-	8b-\L	in
.	.	.	.	8f#X\J	.	8a\J	.
.	.	.	.	2g\	-fir-	[2b-\	fir-
=28	=28	=28	=28	=28	=28	=28	=28
1D	.	1d	.	4g\	-ma,	4b-\]	.
.	.	.	.	8f#X\L	in-	8a\L	.
.	.	.	.	8e\J	.	8g\J	.
.	.	.	.	2f#\	-fir-	2a\	.
=29	=29	=29	=29	=29	=29	=29	=29
1D	-ma.	1d	-ma:	1f#X	-ma.	1a	-ma.
=30||	=30||	=30||	=30||	=30||	=30||	=30||	=30||
!LO:TX:a:t=2.	!	!LO:TX:a:t=Solo.	!	!LO:TX:a:t=1	!	!LO:TX:a:t=13.	!
0r	.	4F/	vi-	1r	.	00r	.
.	.	8.A\L	-gi-	.	.	.	.
.	.	16B-\Jk	.	.	.	.	.
.	.	8c\	-la-	.	.	.	.
.	.	8G/	-te	.	.	.	.
.	.	[4B-\	et	.	.	.	.
!	!	!LO:LB:g=original	!	!	!	!	!
=31	=31	=31	=31	=31	=31	=31	=31
!	!	!	!	!LO:TX:a:t=Solo.	!	!	!
.	.	8B-\]	.	2r	.	.	.
.	.	16A/LL	o-	.	.	.	.
.	.	16G/JJ	.	.	.	.	.
.	.	4A/	-ra-	.	.	.	.
.	.	4G/	-te,	4c\	Vi-	.	.
.	.	4r	.	8.e\L	-gi-	.	.
.	.	.	.	16f\Jk	.	.	.
!LO:LB:g=original	!	!	!	!LO:LB:g=original	!	!	!
=32	=32	=32	=32	=32	=32	=32	=32
!LO:TX:a:t=Solo.	!	!LO:TX:a:t=1	!	!	!	!	!
2r	.	1r	.	8g\	-la-	.	.
.	.	.	.	8d\	-te	.	.
.	.	.	.	4.f\	et	.	.
4C/	Vi-	.	.	.	.	.	.
.	.	.	.	16e\LL	o-	.	.
.	.	.	.	16d\JJ	.	.	.
8.E\L	-gi-	.	.	4e\	-ra-	.	.
16F\Jk	.	.	.	.	.	.	.
=33	=33	=33	=33	=33	=33	=33	=33
8G\	-la-	8r	.	4d\	-te,	.	.
16.F\LL	-te	8G\	ut	.	.	.	.
32E\JJk	.	.	.	.	.	.	.
8F\	et	8Bn\	non	4r	.	.	.
8F\	o-	8d\	in-	.	.	.	.
8.E\L	-ra-	8d\L	-tre-	8r	.	.	.
.	.	16c\L	.	8c\	ut	.	.
16D\Jk	.	16Bn\JJ	.	.	.	.	.
4C/	-te	4c\	-tis	8e\	non	.	.
.	.	.	.	8g\	in-	.	.
!	!	!LO:LB:g=original	!	!	!	!	!
=34	=34	=34	=34	=34	=34	=34	=34
8r	.	8r	.	8g\L	-tre-	00r	.
8F\	ut	8A\	ut	16f\L	.	.	.
.	.	.	.	16e\JJ	.	.	.
8A\	non	8c\	non	4f\	-tis,	.	.
8c\	in-	8e-X\	in-	.	.	.	.
8.A\L	-tre-	8e-\L	-tre-	8r	.	.	.
.	.	16.d\L	.	8d\	ut	.	.
16G\Jk	.	.	.	.	.	.	.
.	.	32c\JJk	.	.	.	.	.
4F#X\	-tis	4d\	-tis	8f#X\	non	.	.
.	.	.	.	8a\	in-	.	.
!LO:LB:g=original	!	!	!	!LO:LB:g=original	!	!	!
=35	=35	=35	=35	=35	=35	=35	=35
8r	.	4r	.	8a\L	-tre-	.	.
8G\	ut	.	.	16g\L	.	.	.
.	.	.	.	16f#X\JJ	.	.	.
8B-\	non	4.B-\	in	4g\	-tis,	.	.
8G\	in-	.	.	.	.	.	.
4c\	-tre-	.	.	4r	.	.	.
.	.	8A\	ten-	.	.	.	.
4c\	-tis	8G\	-ta-	[4e-X\	in-	.	.
.	.	8B-\	-ti-	.	.	.	.
=36	=36	=36	=36	=36	=36	=36	=36
8F\	in	8.A\L	-o-	8e-\]	.	.	.
8F\	ten-	.	.	8d\	-ten-	.	.
.	.	16B-\Jk	.	.	.	.	.
8F\	-ta-	4c\	.	8c\	-ta-	.	.
8F\	-ti-	.	.	8d\	-ti-	.	.
4.B-\	-o-	16c\LL	.	8.d\L	-o-	.	.
.	.	16A\	.	.	.	.	.
.	.	16B-\	.	.	.	.	.
.	.	16c\JJ	.	16e-X\Jk	.	.	.
.	.	[4d\	.	[4f\	.	.	.
8A\	.	.	.	.	.	.	.
!	!	!LO:LB:g=original	!	!	!	!	!
=37	=37	=37	=37	=37	=37	=37	=37
4G\	.	8d\L]	.	8f\L]	.	.	.
.	.	16c\L	.	16e-X\L	.	.	.
.	.	16B-\JJ	.	16d\JJ	.	.	.
4E-X\	.	8c\L	.	8e-\L	.	.	.
.	.	8B-\J	.	8d\J	.	.	.
8.F\L	.	8.A\L	.	8c\L	.	.	.
.	.	.	.	8e-\J	.	.	.
16G\K	.	16B-\Jk	.	.	.	.	.
8A\	.	[4c\	.	16e-\LL	.	.	.
.	.	.	.	32d\L	.	.	.
.	.	.	.	32c\J	.	.	.
8F\J	.	.	.	16d\	.	.	.
.	.	.	.	16e-\JJ	.	.	.
!LO:LB:g=original	!	!	!	!LO:LB:g=original	!	!	!
=38	=38	=38	=38	=38	=38	=38	=38
2B-\	.	8c\L]	.	8.d\L	.	00r	.
.	.	16.B-\L	.	.	.	.	.
.	.	.	.	16e-X\Jk	.	.	.
.	.	32A\JJk	.	.	.	.	.
.	.	4B-\	.	4d\	.	.	.
4F\	-nem,	8A/	-nem,	4c\	-nem,	.	.
.	.	8F/	ut	.	.	.	.
4r	.	8A/	non	4r	.	.	.
.	.	8c\	in-	.	.	.	.
!	!	!LO:LB:g=original	!	!	!	!	!
=39	=39	=39	=39	=39	=39	=39	=39
8r	.	8c\L	-tre-	8r	.	.	.
8F\	ut	16.B-\L	.	8B-/	ut	.	.
.	.	32A\JJk	.	.	.	.	.
8B-\	non	4B-\	-tis	8d\	non	.	.
8d\	in-	.	.	8f\	in-	.	.
4c\	-tre-	8r	.	8f\L	-tre-	.	.
.	.	8En/	ut	16en\L	.	.	.
.	.	.	.	16d\JJ	.	.	.
4C/	-tis	8G/	non	4e\	-tis	.	.
.	.	8B-\	in-	.	.	.	.
=40	=40	=40	=40	=40	=40	=40	=40
8r	.	8B-\	-tre-	8r	.	.	.
8A\	ut	8A\	-tis	8f\	ut	.	.
8A\	non	4.c\	in	8f\	non	.	.
8A\	in-	.	.	8e\	in-	.	.
!	!	!	!	!LO:LB:g=original	!	!	!
=-	=-	=-	=-	=-	=-	=-	=-
8B-\	-tre-	.	.	8d\	-tre-	.	.
8B-\	-tis	8F/	ten-	8d\	-tis	.	.
8B-\	in	[4B-\	-ta-	8g\	in	.	.
8A\	ten-	.	.	8f\	ten-	.	.
!LO:LB:g=original	!	!	!	!	!	!	!
=41	=41	=41	=41	=41	=41	=41	=41
4G\	-ta-	8B-\L]	.	8e\	-ta-	.	.
.	.	16.A\L	.	8c\	-ti-	.	.
.	.	32G\JK	.	.	.	.	.
4F\	-ti-	8A\J	.	4.f\	-o-	.	.
.	.	8F/	-ti-	.	.	.	.
2C/	-o-	2G/	-o-	.	.	.	.
.	.	.	.	16e\LL	.	.	.
.	.	.	.	16d\JJ	.	.	.
.	.	.	.	4e\	.	.	.
!	!	!LO:LB:g=original	!	!	!	!	!
=42	=42	=42	=42	=42	=42	=42	=42
!	!	!	!	!LO:TX:a:t=Volti Subito	!	!	!
2F\	-nem.	2F/	-nem.	1f	-nem.	1r	.
!LO:TX:a:t=Volti Subitto&colon;	!	!	!	!	!	!	!
2r	.	2r	.	.	.	.	.
!LO:PB:g=original	!	!	!	!LO:PB:g=original	!	!LO:LB:g=original	!
=43||	=43||	=43||	=43||	=43||	=43||	=43||	=43||
*M4/4	*	*M4/4	*	*M4/4	*	*M4/4	*
*met(c)	*	*met(c)	*	*met(c)	*	*met(c)	*
!	!	!	!	!LO:TX:a:t=tutti.	!	!	!
4r	.	4r	.	4r	.	4r	.
4.D\	Spi-	4.d\	Spi-	4.f\	Spi-	4.a\	Spi-
8E\	-ri-	8d\	-ri-	8g\	-ri-	8a\	-ri-
4F\	-tus	4d\	-tus	4a\	-tus	4dd\	-tus
=44	=44	=44	=44	=44	=44	=44	=44
4E\	qui-	4e\	qui-	4g\	qui-	8cc#X\L	qui-
.	.	.	.	.	.	8dd\J	.
4C#X/	-dem	4A\	-dem	4g\	-dem	4ee\	-dem
4.D\	promp-	4.A\	promp-	4.f\	promp-	4.dd\	promp-
8D\	-tus	8A\	-tus	8f\	-tus	8dd\	-tus
=45	=45	=45	=45	=45	=45	=45	=45
4AA/	est,	2A\	est,	2e\	est,	2cc#X\	est
2A\	ca-	.	.	.	.	.	.
.	.	4r	.	2f#X\	ca-	2ccn\	ca-
4F#X\	-ro	[4d\	ca-	.	.	.	.
!	!	!LO:PB:g=original	!	!	!	!	!
=46	=46	=46	=46	=46	=46	=46	=46
2G\	au-	4d\]	.	2fn\	-ro	2bn\	-ro
.	.	4Bn\	-ro	.	.	.	.
4G\	-tem	2c\	au-	4e\	au-	[2b-X\	au-
4E\	in-	.	.	[4g\	-tem	.	.
!LO:LB:g=original	!	!	!	!	!	!LO:LB:g=original	!
=47	=47	=47	=47	=47	=47	=47	=47
1F	-fir-	4c\	-tem	4g\]	.	4b-\]	.
.	.	4c\	in-	8f\L	in-	8a\	-tem
.	.	.	.	8e\J	.	8g\	in-
.	.	2c\	-fir-	2f\	-fir-	2a\	-fir-
!	!	!	!	!LO:LB:g=original	!	!	!
=48	=48	=48	=48	=48	=48	=48	=48
4C/	-ma,	4c\	-ma	2e\	-ma,	2g\	-ma,
2c\	ca-	2e\	ca-	.	.	.	.
.	.	.	.	4a\	ca-	4cc\	ca-
4A\	-ro	[4f\	-ro	4a\	-ro	4cc\	-ro
=49	=49	=49	=49	=49	=49	=49	=49
2B-\	au-	4f\]	.	4a\	au-	2dd\	au-
.	.	4d\	au-	4.g\	.	.	.
4A\	-tem	4e-X\	-tem	.	.	[2cc\	-tem
.	.	.	.	8f#X\	.	.	.
4F#X\	in-	4d\	in-	4a\	-tem	.	.
!	!	!LO:LB:g=original	!	!	!	!	!
=50	=50	=50	=50	=50	=50	=50	=50
1G	-fir-	1d	-fir-	4a\	in-	4cc\]	.
.	.	.	.	8g\L	.	8b-\L	in-
.	.	.	.	8f#X\J	.	8a\J	.
.	.	.	.	2g\	-fir-	[2b-\	-fir-
!	!	!	!	!	!	!LO:LB:g=original	!
=51	=51	=51	=51	=51	=51	=51	=51
1D	.	1d	.	4g\	-ma,	4b-\]	.
.	.	.	.	8f#X\L	in-	8a\L	.
.	.	.	.	8e\J	.	8g\J	.
.	.	.	.	2f#\	-fir-	2a\	.
=52	=52	=52	=52	=52	=52	=52	=52
1D	-ma.	1d	-ma.	1f#X	-ma.	1a	-ma.
==	==	==	==	==	==	==	==
*-	*-	*-	*-	*-	*-	*-	*-
!!!system-decoration: [(s1,s2,s3,s4)]
!!!RDF**kern: < = below
!!!ENC: Berenika Jozajtis
!!!END: 2023-11-13
!!!EED: Marta Chmielewska
!!!EEV: 2024-06-03
